X:1
T:Creeping Jane
M:4/4
L:1/8
K:D
 A,3/2 A,/2| F2 F3/2 E/2 D2 F3/2 E/2| F3/2 E/2 F3/2 D/2 A,2 A,3/2- A,/2|\
 G2 A2 B2 F2| A4 E4-| E6 F3/2 G/2| A3/2 A/2 G3/2 E/2 D3/2- D/2 F3/2 E/2|\
 F3/2 E/2 F3/2 D/2 A,2 G3/2 F/2| G3/2 A/2 B3/2 G/2 F3/2 A/2 G3/2 E/2|\
 D2 C3/2 E/2 D3 C| A,3 B, C3/2 D/2 E3/2 F/2| G4 F4-| F6 G3/2 G/2|
